X: 21
T:The Minstrel Boy
% Nottingham Music Database
S:Lesley Dolman, via EF
M:4/4
L:1/4
K:G
[DF]|"G"[G3B3]"D7"[Ac]|"G"[ce][Bd] [Ac][GB]|"G"[B2d2] "D/f+"[d2f2]|"Em"[g2b2] "D"[fa][gb]|"C"[e2g2] "G/b"[d2g2]|"G"[Bd][ce] [dg][Bd]|\
"D7"[A4c4]|
"G"[G2B2] [D2G2]|"G"[G3B3]"D7"[Ac]|"G"[ce][Bd] [Ac][GB]|"G"[B2d2] "D/f+"[d2f2]|"Em"[g2b2] "D"[fa][gb]|"C"[e2g2] "G/b"[d2g2]|\
"G"[Bd][ce] [dg][Bd]|"D7"[A4c4]|
"G"[G2B2] [d2g2]|"Em"[g2b2] "B7"[f2a2]|"Em"[e2g2] "A7"[fa][ga]|"D"[f2a2] "A7"[e2g2]|"D"[d3f3][df]|"Em"[e3g3][Be]|"Bm"[B2d2] [d2f2]|\
"Em"[e2g2] "D7"[f2a2]|"G"[g3b3][gb]|
"G"[G3B3]"D7"[Ac]|"G"[ce][Bd] [Ac][GB]|"G"[B2d2] "D/f+"[d2f2]|"Em"[g2b2] "D"[fa][gb]|"C"[e2g2] "G/b"[d2g2]|"G"[Bd][ce] [dg][Bd]|"D7"[A4c4]|\
[G3B3]||


